docs/logo.svg

<?xml version="1.0" encoding="UTF-8" standalone="no"?>
<svg width="32px" height="26px" viewBox="0 0 32 26" version="1.1" xmlns="http://www.w3.org/2000/svg" xmlns:xlink="http://www.w3.org/1999/xlink">
    <!-- Generator: Sketch 3.7.1 (28215) - http://www.bohemiancoding.com/sketch -->
    <title>Slice 1</title>
    <desc>Created with Sketch.</desc>
    <defs></defs>
    <g id="Page-1" stroke="none" stroke-width="1" fill="none" fill-rule="evenodd">
        <g id="date-fns-mini-logo" fill="#770C56">
            <g id="Page-1">
                <g id="logo">
                    <g id="Page-1">
                        <g id="Solid-logo">
                            <g id="White-logo">
                                <path d="M0.0773377951,12.9617647 C0.0773377951,10.4657522 0.541359926,8.11201106 1.46941811,5.90047059 C2.39747629,3.68893013 3.73386003,1.72977324 5.47860941,0.0229411764 L8.98665179,0.0229411764 C5.34866372,3.58342956 3.52969697,7.89632761 3.52969697,12.9617647 C3.52969697,18.0272018 5.34866372,22.3400999 8.98665179,25.9005883 L5.47860941,25.9005883 C3.73386003,24.1937561 2.39747629,22.2345993 1.46941811,20.0230588 C0.541359926,17.8115184 0.0773377951,15.4577772 0.0773377951,12.9617647 L0.0773377951,12.9617647 L0.0773377951,12.9617647 L0.0773377951,12.9617647 Z M31.4378137,12.9617647 C31.4378137,15.4577772 30.9737916,17.8115184 30.0457334,20.0230588 C29.1176752,22.2345993 27.7812915,24.1937561 26.0365421,25.9005883 L22.5284998,25.9005883 C26.1664878,22.3400999 27.9854545,18.0272018 27.9854545,12.9617647 C27.9854545,7.89632761 26.1664878,3.58342956 22.5284998,0.0229411764 L26.0365421,0.0229411764 C27.7812915,1.72977324 29.1176752,3.68893013 30.0457334,5.90047059 C30.9737916,8.11201106 31.4378137,10.4657522 31.4378137,12.9617647 L31.4378137,12.9617647 L31.4378137,12.9617647 L31.4378137,12.9617647 Z" id="Parans"></path>
                                <g id="Hands" transform="translate(12.954081, 1.720588)">
                                    <rect id="Hand" x="0" y="0" width="2.32013386" height="13.1911764"></rect>
                                    <polygon id="Hand" points="2.3189551 13.1499342 0.815087916 11.6629302 10.2484366 2.3353599 11.7523038 3.82236388 2.3189551 13.1499342"></polygon>
                                </g>
                            </g>
                        </g>
                    </g>
                </g>
            </g>
        </g>
    </g>
</svg>

<svg xmlns="http://www.w3.org/2000/svg" viewBox="0 0 32 26"><g fill="#770C56" fill-rule="evenodd"><path d="M.0773378 12.9617647c0-2.4960125.46402213-4.84975364 1.3920803-7.0612941.9280582-2.21154047 2.26444193-4.17069736 4.0091913-5.87752942h3.5080424C5.3486637 3.58342956 3.52969696 7.8963276 3.52969696 12.9617647s1.81896675 9.3783352 5.45695482 12.9388236H5.4786094c-1.74474937-1.7068322-3.0811331-3.665989-4.0091913-5.8775295C.54135994 17.8115184.0773378 15.4577772.0773378 12.9617647zm31.3604759 0c0 2.4960125-.4640221 4.8497537-1.3920803 7.0612941-.9280582 2.2115405-2.2644419 4.1706973-4.0091913 5.8775295h-3.5080423c3.637988-3.5604884 5.4569547-7.8733865 5.4569547-12.9388236S26.1664878 3.58342956 22.5284998.02294118h3.5080423c1.7447494 1.70683206 3.0811331 3.66598895 4.0091913 5.8775294.9280582 2.21154048 1.3920803 4.56528162 1.3920803 7.06129412zM12.954081 1.720588h2.32013386v13.1911764H12.954081z"/><path d="M15.2730361 14.8705222l-1.50386718-1.487004 9.43334868-9.3275703 1.5038672 1.48700398-9.4333487 9.32757032"/></g></svg>
